src/globals/images/flag_en_us.svg

<svg width="19" height="19" viewBox="0 0 19 19" fill="none" xmlns="http://www.w3.org/2000/svg">
<mask id="mask0_180_400" style="mask-type:alpha" maskUnits="userSpaceOnUse" x="0" y="0" width="19" height="19">
<circle cx="9.5" cy="9.5" r="9.5" fill="#D9D9D9"/>
</mask>
<g mask="url(#mask0_180_400)">
<g clip-path="url(#clip0_180_400)">
<rect width="27.8182" height="19" rx="2.47273" fill="#9B2424"/>
<rect x="3.05176e-05" y="9.89091" width="27.8182" height="1.23636" fill="#F9F9F9"/>
<rect x="10.8182" y="7.10909" width="17" height="1.23636" fill="#F9F9F9"/>
<rect x="10.8182" y="4.32729" width="17" height="1.23636" fill="#F9F9F9"/>
<rect x="3.05176e-05" y="12.6727" width="27.8182" height="1.23636" fill="#F9F9F9"/>
<rect x="3.05176e-05" y="15.4545" width="27.8182" height="1.23636" fill="#F9F9F9"/>
<rect x="10.8182" y="1.54546" width="17" height="1.23636" fill="#F9F9F9"/>
<rect width="10.8182" height="9.89091" fill="#242F9B"/>
<path d="M4.24488 3.64728L4.30964 3.84662L4.51924 3.84662L4.34967 3.96981L4.41444 4.16915L4.24488 4.04595L4.07531 4.16915L4.14008 3.96981L3.97051 3.84662L4.18011 3.84662L4.24488 3.64728Z" fill="white"/>
<path d="M4.24488 5.66667L4.30964 5.86601L4.51924 5.86601L4.34967 5.98921L4.41444 6.18855L4.24488 6.06535L4.07531 6.18855L4.14008 5.98921L3.97051 5.86601L4.18011 5.86601L4.24488 5.66667Z" fill="white"/>
<path d="M4.24488 7.68605L4.30964 7.88539L4.51924 7.88539L4.34967 8.00859L4.41444 8.20792L4.24488 8.08473L4.07531 8.20792L4.14008 8.00859L3.97051 7.88539L4.18011 7.88539L4.24488 7.68605Z" fill="white"/>
<path d="M7.27393 0.618179L7.3387 0.817517L7.54829 0.817517L7.37873 0.940715L7.44349 1.14005L7.27393 1.01686L7.10436 1.14005L7.16913 0.940715L6.99956 0.817517L7.20916 0.817517L7.27393 0.618179Z" fill="white"/>
<path d="M8.28363 1.62787L8.3484 1.82721L8.558 1.82721L8.38843 1.9504L8.4532 2.14974L8.28363 2.02654L8.11407 2.14974L8.17883 1.9504L8.00927 1.82721L8.21886 1.82721L8.28363 1.62787Z" fill="white"/>
<path d="M9.2934 0.618179L9.35817 0.817517L9.56776 0.817517L9.3982 0.940715L9.46297 1.14005L9.2934 1.01686L9.12383 1.14005L9.1886 0.940715L9.01903 0.817517L9.22863 0.817517L9.2934 0.618179Z" fill="white"/>
<path d="M7.27393 2.63757L7.3387 2.83691L7.54829 2.83691L7.37873 2.96011L7.44349 3.15945L7.27393 3.03625L7.10436 3.15945L7.16913 2.96011L6.99956 2.83691L7.20916 2.83691L7.27393 2.63757Z" fill="white"/>
<path d="M7.27393 4.65697L7.3387 4.85631L7.54829 4.85631L7.37873 4.9795L7.44349 5.17884L7.27393 5.05564L7.10436 5.17884L7.16913 4.9795L6.99956 4.85631L7.20916 4.85631L7.27393 4.65697Z" fill="white"/>
<path d="M7.27393 8.69572L7.3387 8.89506L7.54829 8.89506L7.37873 9.01826L7.44349 9.2176L7.27393 9.0944L7.10436 9.2176L7.16913 9.01826L6.99956 8.89506L7.20916 8.89506L7.27393 8.69572Z" fill="white"/>
<path d="M7.27393 6.67638L7.3387 6.87571L7.54829 6.87571L7.37873 6.99891L7.44349 7.19825L7.27393 7.07505L7.10436 7.19825L7.16913 6.99891L6.99956 6.87571L7.20916 6.87571L7.27393 6.67638Z" fill="white"/>
<path d="M5.25455 0.618179L5.31932 0.817517L5.52891 0.817517L5.35935 0.940715L5.42412 1.14005L5.25455 1.01686L5.08498 1.14005L5.14975 0.940715L4.98018 0.817517L5.18978 0.817517L5.25455 0.618179Z" fill="white"/>
<path d="M6.26425 1.62787L6.32902 1.82721L6.53862 1.82721L6.36905 1.9504L6.43382 2.14974L6.26425 2.02654L6.09469 2.14974L6.15946 1.9504L5.98989 1.82721L6.19948 1.82721L6.26425 1.62787Z" fill="white"/>
<path d="M5.25455 2.63757L5.31932 2.83691L5.52891 2.83691L5.35935 2.96011L5.42412 3.15945L5.25455 3.03625L5.08498 3.15945L5.14975 2.96011L4.98018 2.83691L5.18978 2.83691L5.25455 2.63757Z" fill="white"/>
<path d="M5.25455 4.65697L5.31932 4.85631L5.52891 4.85631L5.35935 4.9795L5.42412 5.17884L5.25455 5.05564L5.08498 5.17884L5.14975 4.9795L4.98018 4.85631L5.18978 4.85631L5.25455 4.65697Z" fill="white"/>
<path d="M5.25455 8.69572L5.31932 8.89506L5.52891 8.89506L5.35935 9.01826L5.42412 9.2176L5.25455 9.0944L5.08498 9.2176L5.14975 9.01826L4.98018 8.89506L5.18978 8.89506L5.25455 8.69572Z" fill="white"/>
<path d="M5.25455 6.67638L5.31932 6.87571L5.52891 6.87571L5.35935 6.99891L5.42412 7.19825L5.25455 7.07505L5.08498 7.19825L5.14975 6.99891L4.98018 6.87571L5.18978 6.87571L5.25455 6.67638Z" fill="white"/>
<path d="M3.23517 0.618179L3.29994 0.817517L3.50954 0.817517L3.33997 0.940715L3.40474 1.14005L3.23517 1.01686L3.0656 1.14005L3.13037 0.940715L2.96081 0.817517L3.1704 0.817517L3.23517 0.618179Z" fill="white"/>
<path d="M1.21576 0.618179L1.28053 0.817517L1.49013 0.817517L1.32056 0.940715L1.38533 1.14005L1.21576 1.01686L1.04619 1.14005L1.11096 0.940715L0.941396 0.817517L1.15099 0.817517L1.21576 0.618179Z" fill="white"/>
<path d="M4.24488 1.62787L4.30964 1.82721L4.51924 1.82721L4.34967 1.9504L4.41444 2.14974L4.24488 2.02654L4.07531 2.14974L4.14008 1.9504L3.97051 1.82721L4.18011 1.82721L4.24488 1.62787Z" fill="white"/>
<path d="M2.22547 1.62787L2.29023 1.82721L2.49983 1.82721L2.33026 1.9504L2.39503 2.14974L2.22547 2.02654L2.0559 2.14974L2.12067 1.9504L1.9511 1.82721L2.1607 1.82721L2.22547 1.62787Z" fill="white"/>
<path d="M3.23517 2.63757L3.29994 2.83691L3.50954 2.83691L3.33997 2.96011L3.40474 3.15945L3.23517 3.03625L3.0656 3.15945L3.13037 2.96011L2.96081 2.83691L3.1704 2.83691L3.23517 2.63757Z" fill="white"/>
<path d="M1.21576 2.63757L1.28053 2.83691L1.49013 2.83691L1.32056 2.96011L1.38533 3.15945L1.21576 3.03625L1.04619 3.15945L1.11096 2.96011L0.941396 2.83691L1.15099 2.83691L1.21576 2.63757Z" fill="white"/>
<path d="M2.22547 3.64728L2.29023 3.84662L2.49983 3.84662L2.33026 3.96981L2.39503 4.16915L2.22547 4.04595L2.0559 4.16915L2.12067 3.96981L1.9511 3.84662L2.1607 3.84662L2.22547 3.64728Z" fill="white"/>
<path d="M3.23517 4.65697L3.29994 4.85631L3.50954 4.85631L3.33997 4.9795L3.40474 5.17884L3.23517 5.05564L3.0656 5.17884L3.13037 4.9795L2.96081 4.85631L3.1704 4.85631L3.23517 4.65697Z" fill="white"/>
<path d="M1.21576 4.65697L1.28053 4.85631L1.49013 4.85631L1.32056 4.9795L1.38533 5.17884L1.21576 5.05564L1.04619 5.17884L1.11096 4.9795L0.941396 4.85631L1.15099 4.85631L1.21576 4.65697Z" fill="white"/>
<path d="M2.22547 5.66667L2.29023 5.86601L2.49983 5.86601L2.33026 5.98921L2.39503 6.18855L2.22547 6.06535L2.0559 6.18855L2.12067 5.98921L1.9511 5.86601L2.1607 5.86601L2.22547 5.66667Z" fill="white"/>
<path d="M3.23517 8.69572L3.29994 8.89506L3.50954 8.89506L3.33997 9.01826L3.40474 9.2176L3.23517 9.0944L3.0656 9.2176L3.13037 9.01826L2.96081 8.89506L3.1704 8.89506L3.23517 8.69572Z" fill="white"/>
<path d="M2.22547 7.68605L2.29023 7.88539L2.49983 7.88539L2.33026 8.00859L2.39503 8.20792L2.22547 8.08473L2.0559 8.20792L2.12067 8.00859L1.9511 7.88539L2.1607 7.88539L2.22547 7.68605Z" fill="white"/>
<path d="M1.21576 8.69572L1.28053 8.89506L1.49013 8.89506L1.32056 9.01826L1.38533 9.2176L1.21576 9.0944L1.04619 9.2176L1.11096 9.01826L0.941396 8.89506L1.15099 8.89506L1.21576 8.69572Z" fill="white"/>
<path d="M3.23517 6.67638L3.29994 6.87571L3.50954 6.87571L3.33997 6.99891L3.40474 7.19825L3.23517 7.07505L3.0656 7.19825L3.13037 6.99891L2.96081 6.87571L3.1704 6.87571L3.23517 6.67638Z" fill="white"/>
<path d="M1.21576 6.67638L1.28053 6.87571L1.49013 6.87571L1.32056 6.99891L1.38533 7.19825L1.21576 7.07505L1.04619 7.19825L1.11096 6.99891L0.941396 6.87571L1.15099 6.87571L1.21576 6.67638Z" fill="white"/>
<path d="M6.26425 3.64728L6.32902 3.84662L6.53862 3.84662L6.36905 3.96981L6.43382 4.16915L6.26425 4.04595L6.09469 4.16915L6.15946 3.96981L5.98989 3.84662L6.19948 3.84662L6.26425 3.64728Z" fill="white"/>
<path d="M6.26425 5.66667L6.32902 5.86601L6.53862 5.86601L6.36905 5.98921L6.43382 6.18855L6.26425 6.06535L6.09469 6.18855L6.15946 5.98921L5.98989 5.86601L6.19948 5.86601L6.26425 5.66667Z" fill="white"/>
<path d="M6.26425 7.68605L6.32902 7.88539L6.53862 7.88539L6.36905 8.00859L6.43382 8.20792L6.26425 8.08473L6.09469 8.20792L6.15946 8.00859L5.98989 7.88539L6.19948 7.88539L6.26425 7.68605Z" fill="white"/>
<path d="M8.28363 3.64728L8.3484 3.84662L8.558 3.84662L8.38843 3.96981L8.4532 4.16915L8.28363 4.04595L8.11407 4.16915L8.17883 3.96981L8.00927 3.84662L8.21886 3.84662L8.28363 3.64728Z" fill="white"/>
<path d="M9.2934 2.63757L9.35817 2.83691L9.56776 2.83691L9.3982 2.96011L9.46297 3.15945L9.2934 3.03625L9.12383 3.15945L9.1886 2.96011L9.01903 2.83691L9.22863 2.83691L9.2934 2.63757Z" fill="white"/>
<path d="M8.28363 5.66667L8.3484 5.86601L8.558 5.86601L8.38843 5.98921L8.4532 6.18855L8.28363 6.06535L8.11407 6.18855L8.17883 5.98921L8.00927 5.86601L8.21886 5.86601L8.28363 5.66667Z" fill="white"/>
<path d="M9.2934 4.65697L9.35817 4.85631L9.56776 4.85631L9.3982 4.9795L9.46297 5.17884L9.2934 5.05564L9.12383 5.17884L9.1886 4.9795L9.01903 4.85631L9.22863 4.85631L9.2934 4.65697Z" fill="white"/>
<path d="M8.28363 7.68605L8.3484 7.88539L8.558 7.88539L8.38843 8.00859L8.4532 8.20792L8.28363 8.08473L8.11407 8.20792L8.17883 8.00859L8.00927 7.88539L8.21886 7.88539L8.28363 7.68605Z" fill="white"/>
<path d="M9.2934 8.69572L9.35817 8.89506L9.56776 8.89506L9.3982 9.01826L9.46297 9.2176L9.2934 9.0944L9.12383 9.2176L9.1886 9.01826L9.01903 8.89506L9.22863 8.89506L9.2934 8.69572Z" fill="white"/>
<path d="M9.2934 6.67638L9.35817 6.87571L9.56776 6.87571L9.3982 6.99891L9.46297 7.19825L9.2934 7.07505L9.12383 7.19825L9.1886 6.99891L9.01903 6.87571L9.22863 6.87571L9.2934 6.67638Z" fill="white"/>
</g>
</g>
<defs>
<clipPath id="clip0_180_400">
<rect width="19" height="19" rx="3.09091" fill="white"/>
</clipPath>
</defs>
</svg>

<svg xmlns="http://www.w3.org/2000/svg" xmlns:xlink="http://www.w3.org/1999/xlink" width="19" height="19" fill="none" xmlns:v="https://vecta.io/nano"><mask id="A" maskUnits="userSpaceOnUse" x="0" y="0" width="19" height="19" mask-type="alpha"><circle cx="9.5" cy="9.5" r="9.5" fill="#d9d9d9"/></mask><g mask="url(#A)"><g clip-path="url(#B)"><rect width="27.818" height="19" rx="2.473" fill="#9b2424"/><path fill="#f9f9f9" d="M0 9.891h27.818v1.236H0zm10.818-2.782h17v1.236h-17zm0-2.782h17v1.236h-17zM0 12.673h27.818v1.236H0zm0 2.782h27.818v1.236H0zm10.818-13.91h17v1.236h-17z"/><path fill="#242f9b" d="M0 0h10.818v9.891H0z"/><use xlink:href="#C" fill="#fff"/><path d="M4.245 5.667l.065.199h.21l-.17.123.065.199-.17-.123-.17.123.065-.199-.17-.123h.21l.065-.199zm0 2.019l.065.199h.21l-.17.123.065.199-.17-.123-.17.123.065-.199-.17-.123h.21l.065-.199zM7.274.618l.065.199h.21l-.17.123.065.199-.17-.123-.17.123.065-.199L7 .818h.21l.065-.199zm1.01 1.01l.065.199h.21l-.17.123.065.199-.17-.123-.17.123.065-.199-.17-.123h.21l.065-.199zM9.293.618l.065.199h.21l-.17.123.065.199-.17-.123-.17.123.065-.199-.17-.123h.21l.065-.199zm-2.019 2.02l.065.199h.21l-.17.123.065.199-.17-.123-.17.123.065-.199L7 2.837h.21l.065-.199zm0 2.019l.065.199h.21l-.17.123.065.199-.17-.123-.17.123.065-.199L7 4.856h.21l.065-.199zm0 4.039l.065.199h.21l-.17.123.065.199-.17-.123-.17.123.065-.199L7 8.895h.21l.065-.199z" fill="#fff"/><path d="M7.274 6.676l.065.199h.21l-.17.123.065.199-.17-.123-.17.123.065-.199L7 6.876h.21l.065-.199zM5.255.618l.065.199h.21L5.36.94l.065.199-.17-.123-.17.123L5.15.94 4.98.817h.21l.065-.199zm1.009 1.01l.065.199h.21l-.17.123.065.199-.17-.123-.17.123.065-.199-.17-.123h.21l.065-.199zm-1.009 1.01l.065.199h.21l-.17.123.065.199-.17-.123-.17.123.065-.199-.17-.123h.21l.065-.199zm0 2.019l.065.199h.21l-.17.123.065.199-.17-.123-.17.123.065-.199-.17-.123h.21l.065-.199zm0 4.039l.065.199h.21l-.17.123.065.199-.17-.123-.17.123.065-.199-.17-.123h.21l.065-.199z" fill="#fff"/><path d="M5.255 6.676l.065.199h.21l-.17.123.065.199-.17-.123-.17.123.065-.199-.17-.123h.21l.065-.199zM3.235.618l.065.2h.21l-.17.123.065.199-.17-.123-.17.123.065-.199-.17-.123h.21l.065-.199zm-2.019 0l.065.199h.21l-.17.123.065.199-.17-.123-.17.123.065-.199-.17-.123h.21l.065-.199zm3.029 1.01l.065.199h.21l-.17.123.065.199-.17-.123-.17.123.065-.199-.17-.123h.21l.065-.199zm-2.02 0l.065.199h.21l-.17.123.065.199-.17-.123-.17.123.065-.199-.17-.123h.21l.065-.199zm1.01 1.01l.065.199h.21l-.17.123.065.199-.17-.123-.17.123.065-.199-.17-.123h.21l.065-.199zm-2.019 0l.065.199h.21l-.17.123.065.199-.17-.123-.17.123.065-.199-.17-.123h.21l.065-.199zm1.009 1.009l.065.199h.21l-.17.123.065.199-.17-.123-.17.123.065-.199-.17-.123h.21l.065-.199zm1.01 1.01l.065.199h.21l-.17.123.065.199-.17-.123-.17.123.065-.199-.17-.123h.21l.065-.199zm-2.019 0l.065.199h.21l-.17.123.065.199-.17-.123-.17.123.065-.199-.17-.123h.21l.065-.199zm1.009 1.01l.065.199h.21l-.17.123.065.199-.17-.123-.17.123.065-.199-.17-.123h.21l.065-.199zm1.01 3.029l.065.199h.21l-.17.123.065.199-.17-.123-.17.123.065-.199-.17-.123h.21l.065-.199zm-1.01-1.01l.065.199h.21l-.17.123.065.199-.17-.123-.17.123.065-.199-.17-.123h.21l.065-.199zm-1.009 1.01l.065.199h.21l-.17.123.065.199-.17-.123-.17.123.065-.199-.17-.123h.21l.065-.199zm2.019-2.02l.065.199h.21l-.17.123.065.199-.17-.123-.17.123.065-.199-.17-.123h.21l.065-.199zm-2.019 0l.065.199h.21l-.17.123.065.199-.17-.123-.17.123.065-.199-.17-.123h.21l.065-.199zm5.048-3.029l.065.199h.21l-.17.123.065.199-.17-.123-.17.123.065-.199-.17-.123h.21l.065-.199zm0 2.02l.065.199h.21l-.17.123.065.199-.17-.123-.17.123.065-.199-.17-.123h.21l.065-.199zm0 2.019l.065.199h.21l-.17.123.065.199-.17-.123-.17.123.065-.199-.17-.123h.21l.065-.199zm2.02-4.039l.065.199h.21l-.17.123.065.199-.17-.123-.17.123.065-.199-.17-.123h.21l.065-.199zm1.009-1.009l.065.199h.21l-.17.123.065.199-.17-.123-.17.123.065-.199-.17-.123h.21l.065-.199zM8.284 5.667l.065.199h.21l-.17.123.065.199-.17-.123-.17.123.065-.199-.17-.123h.21l.065-.199zm1.009-1.01l.065.199h.21l-.17.123.065.199-.17-.123-.17.123.065-.199-.17-.123h.21l.065-.199zM8.284 7.686l.065.199h.21l-.17.123.065.199-.17-.123-.17.123.065-.199-.17-.123h.21l.065-.199zm1.009 1.01l.065.199h.21l-.17.123.065.199-.17-.123-.17.123.065-.199-.17-.123h.21l.065-.199zm0-2.02l.065.199h.21l-.17.123.065.199-.17-.123-.17.123.065-.199-.17-.123h.21l.065-.199z" fill="#fff"/></g></g><defs><clipPath id="B"><rect width="19" height="19" rx="3.091" fill="#fff"/></clipPath><path id="C" d="M4.245 3.647l.065.199h.21l-.17.123.065.199-.17-.123-.17.123.065-.199-.17-.123h.21l.065-.199z"/></defs></svg>
